X:1
T:3 Vals fr Kall
R:Waltz
O:Sweden
A:Jämtland
N:Efter Fredrik Olsson, meddeled av Janne Johansson.
N:Valsen skall urpsrungligen spelats av en gruvarbefare vid Huså gruva i Kall,
N:härstammande från Värmland, vid namn Malmquist.
N:Machine translation :-
N: After Fredrik Olsson, communicated by Janne Johansson.
N: The waltz was originally played by a miner at the Huså mine in Kall,
N: originating from Värmland, named Malmquist.
M:3/4
Z:Richard Robinson <URL:http://www.qualmograph.org.uk/contact.html>
S:Christina Cochrane-Eketorp
K:G
[G,G]>(Bd2)g2 | b4a2 | fag2e2 | d4g2 | (3fgfA2B2 | c4e2 | d>(cB2)c2 | d4B2 | 
[G,G]>(Bd2)g2 | b4a2 | fag2e2 | d4g2 | (3fgfA2B2 | c4e2 | d(d c)(d e)f |1 g6 |2 g4{B}d(d |:
B)c/B/ G(G c)(c | e)(c A)(c e)(e | f)g/f/ d(f g)(f | g)b d4 | 
{d}Bc/B/ G(G c)(c | e)(c A)(c e)(e | f)g/f/ d(d f)a |1 g4 {B}d(d :|2 g6 |]